!!!OTL: 1976. Osterjubel. / [Mel. Resurrexit Dominus 1544.]
!!!ODT: 1573
!!!ARE: Europa, Mitteleuropa, Deutschland
!!!SCT: E1976
!!!TXL: @@DE
!!!YEM: Copyright 1995, estate of Helmut Schaffrath.
**kern	**text
*ICvox	*
*M3/4	*
*met(3)	*
*k[b-]	*
*F:	*
=1	=1
!LO:TX:a:t=Reuchenthals Geſangb. 1573.	!
2r	.
{4f	1._Wir
=2	=2
2f	wol-
4a	-len
=3	=3
2cc	al-
4cc	-le
=4	=4
(4cc	fröh-
4a)	.
4b-	-lich
=5	=5
2cc}	ſein
{4ee	in
=6	=6
2ff	die-
4dd	-ſer
=7	=7
2ff	ö-
4cc	-ſter-
=8	=8
(4cc	-li-
4dd)	.
4b-	-chen
=9	=9
2a}	Ʒeit,
{4f	denn
=10	=10
2g	un-
4g	-ſer
=11	=11
2g	Heil
4a	an
=12	=12
4f	Got-
2g	-te
=13	=13
2.f;}	leit.
==	==
!!!AGN: geistlich, Fest - Lied, Ostern
!!!ONB: ESAC (Essen Associative Code) Database: ERK3
!!!AMT: simple triple
!!!AIN: vox
!!!EED: Helmut Schaffrath
!!!EEV: 1.0
!!!GTL: Geistliche Lieder. 1. Christliche Festlieder: b) Osterkreis (Passionszeit, Ostern, Himmelfahrt, Pfingsten).
!!!URL-scan: https://rosdok.uni-rostock.de/mcrviewer/recordIdentifier/rosdok_ppn745177999/iview2/phys_0687.iview2?x=188.96815741118007&y=1207.44571133703&scale=0.7014306698522891&rotation=0&layout=singlePageLayout
!!!ENC: Anna Maria Matuszewska
!!!EEV: 2025/10/01
*-	*-
